public/svg/icon/zrx.svg

<svg xmlns="http://www.w3.org/2000/svg" xmlns:xlink="http://www.w3.org/1999/xlink" width="32" height="32" viewBox="0 0 32 32"><defs><linearGradient id="zrx-c" x1="50%" x2="50%" y1="0%" y2="100%"><stop offset="0%" stop-color="#FFF" stop-opacity=".5"/><stop offset="100%" stop-opacity=".5"/></linearGradient><circle id="zrx-b" cx="16" cy="15" r="15"/><filter id="zrx-a" width="111.7%" height="111.7%" x="-5.8%" y="-4.2%" filterUnits="objectBoundingBox"><feOffset dy=".5" in="SourceAlpha" result="shadowOffsetOuter1"/><feGaussianBlur in="shadowOffsetOuter1" result="shadowBlurOuter1" stdDeviation=".5"/><feComposite in="shadowBlurOuter1" in2="SourceAlpha" operator="out" result="shadowBlurOuter1"/><feColorMatrix in="shadowBlurOuter1" values="0 0 0 0 0 0 0 0 0 0 0 0 0 0 0 0 0 0 0.199473505 0"/></filter><path id="zrx-e" d="M15.4957419,26 C15.2259056,25.9717459 14.9556538,25.9470616 14.686316,25.9145459 C13.2204694,25.7377434 11.8467748,25.2818038 10.5642905,24.5511824 C10.5450125,24.5402239 10.5276457,24.5259723 10.4905855,24.5002088 C12.6970556,22.8514818 14.8930281,21.2106138 17.1012432,19.5605862 C17.3254051,19.7790365 17.5458831,19.9934742 17.7658349,20.2084654 C18.1353295,20.5695421 18.5080372,20.9274088 18.8712166,21.2947396 C18.960488,21.3849811 19.0255235,21.3835698 19.1312477,21.3300503 C20.2456867,20.7660755 21.1566544,19.972166 21.8593035,18.9399371 C21.8929292,18.8905409 21.9261948,18.8409233 21.965831,18.7822566 C21.9972962,18.8183145 22.0258808,18.847205 22.0500614,18.8794164 C22.817469,19.9005208 23.5833533,20.9227321 24.3533922,21.9418717 C24.4199788,22.0299824 24.4115586,22.0824226 24.3410942,22.1624252 C22.5576041,24.1877535 20.3422982,25.4362189 17.6718548,25.8631572 C17.3354872,25.9169258 16.993774,25.9372377 16.6546366,25.9742918 C16.6095439,25.9792176 16.5652267,25.9912553 16.5205771,26 L15.4957419,26 Z M16.4651806,4 C16.6522823,4.01881761 16.8393008,4.0385761 17.0265133,4.05628679 C18.6017126,4.20527799 20.0758688,4.67250818 21.4493972,5.45692579 C21.4687029,5.46791195 21.4859866,5.48235723 21.5193629,5.50587925 C19.2769405,7.1141761 17.0450157,8.71491824 14.800599,10.3245711 C14.7124909,10.2410264 14.6258508,10.1607195 14.5412603,10.0783648 C14.0686451,9.61827421 13.5947558,9.1594566 13.1260184,8.69546415 C13.0509007,8.62110692 12.9938146,8.6128327 12.9000561,8.65971069 C11.7651204,9.2268956 10.8416054,10.0337283 10.1307299,11.0837233 C10.1049705,11.1217459 10.0791834,11.1597686 10.029382,11.2332126 C9.20466664,10.1344302 8.39050435,9.04967799 7.56191127,7.94572075 C7.81064154,7.68174843 8.04059239,7.41921509 8.28971043,7.17627421 C9.91307702,5.59321509 11.8391024,4.58627925 14.0725229,4.1811195 C14.5024828,4.10310943 14.9418601,4.07723522 15.3768057,4.0264 C15.4260254,4.02064403 15.4745805,4.00893836 15.5234402,4 L16.4651806,4 Z M6.45929666,9.53438918 C8.13490215,11.7308747 9.7922822,13.9034231 11.4543155,16.0821426 C11.1153444,16.429715 10.7808881,16.772915 10.4461547,17.1158659 C10.1949039,17.3733351 9.94606287,17.6332672 9.69010336,17.8860043 C9.61758935,17.9575942 9.6151796,18.0129678 9.65902593,18.1009401 C10.2247072,19.2360571 11.032222,20.1587011 12.0822902,20.8701175 C12.116636,20.8933904 12.1513419,20.9161376 12.185023,20.9403791 C12.1913936,20.9449452 12.1936095,20.9552948 12.2118626,20.9893326 C11.1318248,21.7991816 10.048491,22.6114936 8.95075404,23.4345703 C7.00124057,21.7564823 5.73531986,19.6870709 5.2273063,17.1782408 C4.68328502,14.4916118 5.12424112,11.953642 6.45929666,9.53438918 Z M20.6340909,13.9040818 C20.9451146,13.5809723 21.2482996,13.2657774 21.5517893,12.9508868 C21.8078042,12.6852264 22.0604399,12.4161346 22.3226592,12.1567283 C22.4042583,12.0759786 22.4030118,12.0153195 22.3552324,11.9190176 C21.7849808,10.7700918 20.970043,9.83643396 19.9050454,9.12056226 C19.867902,9.09557358 19.8319774,9.06881384 19.7694624,9.02437107 C20.8668947,8.2008239 21.950007,7.38806918 23.0479655,6.56413459 C24.90541,8.15480377 26.138259,10.1136063 26.7042727,12.4786755 C27.4107719,15.430605 26.7814677,18.3509044 25.5573714,20.406756 C23.9185492,18.242205 22.282386,16.0811409 20.6340909,13.9040818 Z"/><filter id="zrx-d" width="115.9%" height="115.9%" x="-8%" y="-5.7%" filterUnits="objectBoundingBox"><feOffset dy=".5" in="SourceAlpha" result="shadowOffsetOuter1"/><feGaussianBlur in="shadowOffsetOuter1" result="shadowBlurOuter1" stdDeviation=".5"/><feColorMatrix in="shadowBlurOuter1" values="0 0 0 0 0 0 0 0 0 0 0 0 0 0 0 0 0 0 0.204257246 0"/></filter></defs><g fill="none" fill-rule="evenodd"><g fill-rule="nonzero"><use fill="#000" filter="url(#zrx-a)" xlink:href="#zrx-b"/><use fill="#302C2C" fill-rule="evenodd" xlink:href="#zrx-b"/><use fill="url(#zrx-c)" fill-rule="evenodd" style="mix-blend-mode:soft-light" xlink:href="#zrx-b"/><circle cx="16" cy="15" r="14.5" stroke="#000" stroke-opacity=".097"/></g><use fill="#000" filter="url(#zrx-d)" xlink:href="#zrx-e"/><use fill="#FFF" xlink:href="#zrx-e"/></g></svg>

<svg xmlns="http://www.w3.org/2000/svg" xmlns:xlink="http://www.w3.org/1999/xlink" width="32" height="32" viewBox="0 0 32 32"><defs><filter id="a" width="111.7%" height="111.7%" x="-5.8%" y="-4.2%" filterUnits="objectBoundingBox"><feOffset dy=".5" in="SourceAlpha" result="shadowOffsetOuter1"/><feGaussianBlur in="shadowOffsetOuter1" result="shadowBlurOuter1" stdDeviation=".5"/><feComposite in="shadowBlurOuter1" in2="SourceAlpha" operator="out" result="shadowBlurOuter1"/><feColorMatrix in="shadowBlurOuter1" values="0 0 0 0 0 0 0 0 0 0 0 0 0 0 0 0 0 0 0.199473505 0"/></filter><filter id="d" width="115.9%" height="115.9%" x="-8%" y="-5.7%" filterUnits="objectBoundingBox"><feOffset dy=".5" in="SourceAlpha" result="shadowOffsetOuter1"/><feGaussianBlur in="shadowOffsetOuter1" result="shadowBlurOuter1" stdDeviation=".5"/><feColorMatrix in="shadowBlurOuter1" values="0 0 0 0 0 0 0 0 0 0 0 0 0 0 0 0 0 0 0.204257246 0"/></filter><linearGradient id="c" x1="50%" x2="50%" y1="0%" y2="100%"><stop offset="0%" stop-color="#FFF" stop-opacity=".5"/><stop offset="100%" stop-opacity=".5"/></linearGradient><circle id="b" cx="16" cy="15" r="15"/><path id="e" d="M15.496 26c-.27-.028-.54-.053-.81-.085a10.88 10.88 0 01-4.122-1.364c-.019-.01-.036-.025-.073-.05 2.206-1.65 4.402-3.29 6.61-4.94l.665.647c.37.362.742.72 1.105 1.087.09.09.155.089.26.035a7.149 7.149 0 002.728-2.39l.107-.158c.031.036.06.065.084.097.767 1.022 1.533 2.044 2.303 3.063.067.088.059.14-.012.22-1.783 2.026-3.999 3.274-6.67 3.701-.336.054-.677.074-1.016.111-.045.005-.09.017-.134.026h-1.025zm.97-22c.186.019.373.039.56.056 1.576.15 3.05.617 4.423 1.4.02.012.037.026.07.05l-6.718 4.819c-.089-.084-.175-.164-.26-.247-.472-.46-.946-.919-1.415-1.383-.075-.074-.132-.082-.226-.035a7.147 7.147 0 00-2.77 2.424l-.1.15-2.468-3.288c.249-.264.479-.527.728-.77 1.623-1.583 3.55-2.59 5.783-2.995.43-.078.869-.104 1.304-.155.049-.005.098-.017.146-.026h.942zM6.458 9.534l4.995 6.548-1.008 1.034c-.251.257-.5.517-.756.77-.072.072-.075.127-.031.215a7.134 7.134 0 002.423 2.77c.035.022.07.045.103.07.006.004.009.014.027.048L8.95 23.435C7 21.756 5.735 19.687 5.227 17.178c-.544-2.686-.103-5.224 1.232-7.644zm14.175 4.37l.918-.953c.256-.266.508-.535.77-.794.082-.081.081-.142.033-.238a7.137 7.137 0 00-2.45-2.798c-.037-.025-.073-.052-.136-.097l3.279-2.46c1.857 1.59 3.09 3.55 3.656 5.915.707 2.952.077 5.872-1.147 7.928l-4.923-6.503z"/></defs><g fill="none" fill-rule="evenodd"><g fill-rule="nonzero"><use fill="#000" filter="url(#a)" xlink:href="#b"/><use fill="#302C2C" fill-rule="evenodd" xlink:href="#b"/><use fill="url(#c)" fill-rule="evenodd" style="mix-blend-mode:soft-light" xlink:href="#b"/><circle cx="16" cy="15" r="14.5" stroke="#000" stroke-opacity=".097"/></g><use fill="#000" filter="url(#d)" xlink:href="#e"/><use fill="#FFF" xlink:href="#e"/></g></svg>
